X: 1790
T: Son Verelim Gel Bu Aşka
C: Şekip Ayhan Özışık
O: Turkey
F: http://compmusic.upf.edu/node/140
N: acemkurdi--fantezi--semai--son_verelim--sekip_ayhan_ozisik
N: makam= acemkurdi
N: form= fantezi
N: usul= semai = 3/4
M: 3/4
L: 1/16
K: C _B   
Q: 1/4=132
%%MIDI tuningsystem comma53
A4 B4 c4  | d12  | c4 d4 f4  | e12  | f4 e4 d4  | c12  | \
w:  ARANAĞME  |   |   |   |   |   | 
_d4 c4 B4  | A12  | A4 B4 c4  | d12  | c4 d4 f4  | 
w:   |   |  ARANAĞME  |   |   | 
e12  | f4 e4 d4  | c12  | _d4 c4 B4  | A12  | \
w:   |   |   |   |   | 
A8 A2A2  | B12  | d6c2 B4  | A12  | A6B2 c4  | d12  | 
w:  Son  ve re  |  lim   |  gel  bu  aş  |  ka    |  Yol la rı  |  mız   | 
c6d2 f4  | e12  | A8 A2A2  | B12  | d6c2 B4  | A12  | \
w:  baş ka  baş  |  ka    |  Son  ve re  |  lim   |  gel  bu  aş  |  ka    | 
A6B2 c4  | d12  | c6d2 f4  | e12  | d6e2 ^f4  | 
w:  Yol la rı  |  mız   |  baş ka  baş  |  ka    |  İs te sek   | 
g12  | ^f4 g4 a4  | g12  | f4 e4 d4  | c12  | \
w:  de   |  ku ra ma  |  yız    |  İ ki miz   |  bir   | 
_d6c2 B4  | A12  | d6e2 ^f4  | g12  | ^f4 g4 a4  | g12  | 
w:  mut lu  yu  |  va    |  İs te sek   |  de   |  ku ra ma  |  yız    | 
f4 e4 d4  | c12  | _d6c2 B4  | A12  | A8 A2A2  | B12  | \
w:  İ ki miz   |  bir   |  mut lu  yu  |  va    |  Son  ve re  |  lim   | 
_d6c2 B4  | A12  | A8 A2A2  | B12  | _d6c2 B4  | 
w:  gel  bu  aş  |  ka    |  Yol la rı  |  mız   |  baş ka  baş  | 
A12  | A8 A2A2  | B12  | _d6c2 B4  | A12  | A8 A2A2  | B12  | \
w:  ka    |  Son  ve re  |  lim   |  gel  bu  aş  |  ka    |  Yol la rı  |  mız   | 
_d6c2 B4  | A12  | A4 B4 c4  | d12  | 
w:  baş ka  baş  |  ka    |  ARANAĞME  |   | 
c4 d4 f4  | e12  | f4 e4 d4  | c12  | _d4 c4 B4  | A12  | \
w:   |   |   |   |   |   | 
A4 B4 c4  | d12  | c4 d4 f4  | e12  | f4 e4 d4  | 
w:  ARANAĞME  |   |   |   |   | 
c12  | _d4 c4 B4  | A12  | A4 A4 A4  | B12  | \
w:   |   |   |  Sen  çap kın  |  sın   | 
d6c2 B4  | A12  | A2B6 c4  | d12  | c4 d4 f4  | e12  | 
w:  hem  ho var  |  da    |  Sö zün  ya  |  lan   |  aş kın  sah  |  te    | 
A4 A4 A4  | B12  | d6c2 B4  | A12  | A2B6 c4  | d12  | \
w:  Sen  çap kın  |  sın   |  hem  ho var  |  da    |  Sö zün  ya  |  lan   | 
c4 d4 f4  | e12  | d2e6 ^f4  | g12  | ^f6g2 a4  | 
w:  aş kın  sah  |  te    |  Be nim_ i  |  çin   |  zor  da  ol  | 
g12  | f4 e4 d4  | c12  | _d2c6 B4  | A12  | d2e6 ^f4  | g12  | \
w:  sa    |  Ça lı şı  |  rım   |  u nut ma  |  ya    |  Be nim_ i  |  çin   | 
^f6g2 a4  | g12  | f4 e4 d4  | c12  | 
w:  zor  da  ol  |  sa    |  Ça lı şı  |  rım   | 
_d2c6 B4  | A12  | A8 A2A2  | B12  | _d6c2 B4  | A12  | \
w:  u nut ma  |  ya    |  Son  ve re  |  lim   |  gel  bu  aş  |  ka    | 
A8 A2A2  | B12  | _d6c2 B4  | A12  | A8 A2A2  | 
w:  Yol la rı  |  mız   |  baş ka  baş  |  ka    |  Son  ve re  | 
B12  | _d6c2 B4  | A12  | A8 A2A2  | B12  | _d6c2 B4  | A12  | |


